z_dist/img/bg/desktop/dark-about-header-wave.svg

<svg width="1920" height="1277" fill="none" xmlns="http://www.w3.org/2000/svg"><path fill-rule="evenodd" clip-rule="evenodd" d="M1920 0H0v1184l80-21.6c80-21.6 240-64.8 400-79.2 106.667-9.6 213.333-6.4 320-3.2 53.333 1.6 106.667 3.2 160 3.2 49.14 0 98.29-3.25 147.43-6.49 110.86-7.32 221.71-14.64 332.57 15.29 37.78 5.06 56.11 10.38 76.65 16.34 20.06 5.82 42.23 12.25 86.68 19.66 90 15 186 59.5 236.67 98.4 50.67 38.9 80 50.4 80 50.4V0z" fill="#0D090A"/></svg>

<svg width="1920" height="1277" viewBox="0 0 1920 1277" fill="none" xmlns="http://www.w3.org/2000/svg">
<path fill-rule="evenodd" clip-rule="evenodd" d="M1920 0H0V968L-5.72205e-05 1184L79.9999 1162.4C160 1140.8 320 1097.6 480 1083.2C586.667 1073.6 693.333 1076.8 800 1080C853.333 1081.6 906.667 1083.2 960 1083.2C1009.14 1083.2 1058.29 1079.95 1107.43 1076.71C1218.29 1069.39 1329.14 1062.07 1440 1092C1477.78 1097.06 1496.11 1102.38 1516.65 1108.34C1536.71 1114.16 1558.88 1120.59 1603.33 1128C1693.33 1143 1789.33 1187.5 1840 1226.4C1890.67 1265.3 1920 1276.8 1920 1276.8V968V0Z" fill="#0D090A"/>
</svg>
